src/pos-icons/screw-machine-flat-top.svg

<svg height="24" viewBox="0 0 24 24" width="24" xmlns="http://www.w3.org/2000/svg"><path d="m14.5 7.3-1 .7v-1h-3v3l-1 .7v1l5-3.3zm0 4-1 .7v-2l-3 2v2l-1 .7v1l5-3.3zm0 4-1 .7v-2l-3 2v2l-1 .7v1l5-3.3zm-6.5-12.3s-1 0-1 1l3 2h4l3-2s0-1-1-1-8 0-8 0m5.5 15v3h-3v-1z"/></svg>

<?xml version="1.0" encoding="UTF-8"?><!DOCTYPE svg PUBLIC "-//W3C//DTD SVG 1.1//EN" "http://www.w3.org/Graphics/SVG/1.1/DTD/svg11.dtd"><svg xmlns="http://www.w3.org/2000/svg" xmlns:xlink="http://www.w3.org/1999/xlink" version="1.1" id="mdi-screw-machine-flat-top" width="24" height="24" viewBox="0 0 24 24"><path d="M14.5,7.3L13.5,8V7H10.5V10L9.5,10.7V11.7L14.5,8.4V7.3M14.5,11.3L13.5,12V10L10.5,12V14L9.5,14.7V15.7L14.5,12.4V11.3M14.5,15.3L13.5,16V14L10.5,16V18L9.5,18.7V19.7L14.5,16.4V15.3M8,3C8,3 7,3 7,4L10,6H14L17,4C17,4 17,3 16,3C15,3 8,3 8,3M13.5,18V21H10.5V20L13.5,18Z" /></svg>
